X:1470
L:1/16
M:2/4
K:A
 A2Ac B2Bd | c2ce A4 | B2Bd G4 | A2Ac E4 | A2Ac B2Bd | c2ce A4 | B2Bd G2B2 | A2c2A2 z2 :: 
 eeee a2c2 | (e2d2) d4 | dddd f2B2 | (d2c2) c4 | eeee a2c2 | ffff b2g2 | e2fe d2B2 | A2c2A2 z x :|

